X:1
T:Title
%%score { 1 | 2 } { 3 | ( 4 5 ) }
L:1/8
Q:1/4=190
M:2/2
K:Bb
V:1 treble nm="Grand Piano, Unnamed-000"
V:2 treble 
V:3 bass nm="Choir Pad, Yorkshire"
V:4 bass 
V:5 bass 
V:1
 F4 B4 | c4 d4- | d2 F2 G4 | A2 E2 B4- | B2 d2 c2 B2 | A2 G2 F2 E2 | D2 F2 B4 | c4 d4 | fedc B4 | %9
w: By~English~Traditional *|||||||||
 A3 B B4 | B4 B2 A2 | A2 G2 G2 F2 | F2 E2 E2 D2 | E4 D4 | F4 B2 d2 | f2 e2 d2 B2 | G2 c2 B4 | %17
w: ||||||||
 A3 B B4 | .B4 .B4 | z2 B2 A2 B2 | c2 d2 B4 | .d4 .d4 | z2 d2 c2 d2 | e2 f2 d4 | d4 e .e3 | %25
w: ||||||||
 c4 d .d3 | B4 c .c3 | A4 B2 c2 | d2 f2 f2 e2 | d2 c2 B4 | A3 B B4 | .B4 .B4 | z2 B2 A2 B2 | %33
w: ||||||||
 c2 d2 B4 | .d4 .d4 | z2 d2 c2 d2 | e2 f2 d4 | d4 e .e3 | c4 d .d3 | B4 c .c3 | A4 B2 c2 | %41
w: ||||||||
 d2 f2 f2 e2 | d2 c2 B4 | A3 B B4 |] %44
w: |||
V:2
 D4 F4 | F4 F4- | F2 z2 E4 | .C4 D4- | D4 z4 | z8 | z2 D2 F4 | F4 F4 | G4 F4 | F4 F4 | D4 D2 F2 | %11
 F2 E2 E2 D2 | D2 C2 C2 B,2 | C4 B,4 | D4 F4 | F4 F4 | E4 D4 | C3 D D4 | .D4 .D4 | z2 D2 C2 D2 | %20
 E2 F2 D4 | .F4 .F4 | z8 | z8 | F4 G .G3 | F4 F .F3 | F4 F .F3 | F4 F4 | F4 D2 E2 | F2 E2 D4 | %30
 C3 D D4 | .D4 .D4 | z2 D2 C2 D2 | E2 F2 D4 | .F4 .F4 | z8 | z8 | F4 G .G3 | F4 F .F3 | F4 F .F3 | %40
 F4 F4 | F4 D2 E2 | F2 E2 D4 | C3 D D4 |] %44
V:3
 B,4 B,4 | A,4 B,4- | B,2 B,2 B,4 | F,4 F,4- | F,2 B,2 A,2 G,2 | F,2 E,2 D,2 C,2 | B,,2 B,2 B,4 | %7
 B,4 B,4 | B,2[K:treble] E2 D4 | C3 D D4 | z4[K:bass] B,,4- | B,,8- | B,,4 F,,4- | F,,4 B,,4 | %14
 B,4 B,4 | A,4 B,2 D2 | B,2 G,2 F,4 | F,4 F,4 | .F,4 .F,4 | z8 | z8 | .B,4 .B,4 | z2 B,2 A,2 B,2 | %23
 C2 D2 B,4 | B,4 B, .B,3 | A,4 B, .B,3 | D4 A, .A,3 | C4 D2 C2 | B,2 D2[K:bass] B,2 A,2 | %29
 B,2 G,2 F,4 | F,4 F,4 | .F,4 .F,4 | z8 | z8 | .B,4 .B,4 | z2 B,2 A,2 B,2 | C2 D2 B,4 | %37
 B,4 B, .B,3 | A,4 B, .B,3 | D4 A, .A,3 | C4 D2 C2 | B,2 D2[K:bass] B,2 A,2 | B,2 G,2 F,4 | %43
 F,4 F,4 |] %44
V:4
 B,,4 D,4 | F,4 z4 | z2 D,2 E,4 | z4 B,,4- | B,,4 z4 | z8 | z2 B,,2 D,4 | F,4 z4 | E,4 F,4 | %9
 F,3- [B,,F,] B,,4 | z4 B,,,4- | B,,,8- | B,,,4 z4 | z8 | B,,4 D,2 B,,2 | F,4 z4 | E,4 z4 | %17
 F,,3 B,, B,,4 | .B,,4 .B,,4 | z8 | z8 | .B,,4 .B,,4 | z8 | z8 | B,,4 E, .E,3 | F,4 B,, .B,,3 | %26
 B,,4 F, .F,3 | F,4 B,2 A,2 | z4 B,,2 C,2 | D,2 E,2 z4 | F,,3 B,, B,,4 | .B,,4 .B,,4 | z8 | z8 | %34
 .B,,4 .B,,4 | z8 | z8 | B,,4 E, .E,3 | F,4 B,, .B,,3 | B,,4 F, .F,3 | F,4 B,2 A,2 | z4 B,,2 C,2 | %42
 D,2 E,2 z4 | F,,3 B,, B,,4 |] %44
V:5
 x8 | x8 | x8 | x8 | x8 | x8 | x8 | x8 | x8 | F,,4 z4 | x8 | x8 | x8 | x8 | x8 | x8 | x8 | x8 | %18
 x8 | x8 | x8 | x8 | x8 | x8 | x8 | x8 | x8 | x8 | x8 | x8 | x8 | x8 | x8 | x8 | x8 | x8 | x8 | %37
 x8 | x8 | x8 | x8 | x8 | x8 | x8 |] %44

